X:1
T:Queen Street, 66.66.88
T:Queen Street, 66.66.88
T:James B. Baxter, 1894
T:Public Domain Courtesy of the Cyber Hymnal™
C:James B. Baxter, 1894
Z:Public Domain
Z:Courtesy of the Cyber Hymnal™
%%score ( 1 2 ) ( 3 4 )
L:1/8
Q:1/4=115
M:4/4
K:G
V:1 treble 
V:2 treble 
V:3 bass 
V:4 bass 
V:1
 [DG]4 [EG]2 [Gc]2 | [GB]3 [FA] G4 | [DB]2 [EA][EB] [Ec]2 [EA]2 | (G4 F2) z2 | [DG]4 [EG]2 [Gc]2 | %5
 [GB]3 [FA] G4 | [GB]2 [FA][GB] [Fc]2 [GB]2 | [FA]8 | [GB]4 [FB]2 [FA]2 | [EG]4 ([EA]2 [EB]2) | %10
 [Ec]6 [EB]2 | A4 [DB]2 [Ec]2 | [Dd]4 [Ec]2 [EB]2 | ([FB]2 [EA][EB] [Ec]2) [EA]2 | [DG]4 [DF]4 | %15
 [DG]8 |] %16
V:2
 x8 | x4 G4 | x8 | D6 x2 | x8 | x4 G4 | x8 | x8 | x8 | x8 | x8 | E2 D2 x4 | x8 | x8 | x8 | x8 |] %16
V:3
 [G,B,]4 [E,B,]2 [C,E]2 | [D,D]3 [D,C] [G,B,]4 | [G,,G,]2 [C,G,][B,,^G,] [A,,A,]2 [C,A,]2 | %3
 (B,4 A,2) z2 | [G,B,]4 [E,B,]2 [C,E]2 | [D,D]3 [D,C] [G,B,]4 | [G,D]2 [CD][B,D] [A,D]2 [G,D]2 | %7
 [D,D]8 | [G,D]4 [D,D]2 [D,C]2 | [E,B,]4 ([C,A,]2 [B,,^G,]2) | [A,,A,]6 [B,,G,]2 | %11
 ([C,G,]2 [D,F,]2 [G,,G,]2) [E,G,]2 | [B,,G,]4 [C,G,]2 [^C,G,]2 | %13
 ([D,F,]2 [C,A,][B,,^G,] [A,,A,]2) [C,A,]2 | [D,B,]4 [D,C]4 | [G,B,]8 |] %16
V:4
 x8 | x8 | x8 | D,6 x2 | x8 | x8 | x8 | x8 | x8 | x8 | x8 | x8 | x8 | x8 | x8 | x8 |] %16

